icons/remark.svg

<svg width="16" height="16" version="1.1" viewBox="0 0 16 16" xmlns="http://www.w3.org/2000/svg">
 <path d="m5.4453 2.9746c-1.7216 0.014645-2.4052 0.95671-2.4453 1.0254v-1h-2v10h2v-6c0.64654-0.84444 1.609-1.7241 3-1v-3c-0.13319-0.013161-0.26166-0.0202-0.38477-0.023438-0.057709-0.0015172-0.11439-0.0024255-0.16992-0.0019531zm5.3027 0.025391c-0.87938 0-1.6623 0.20712-2.3516 0.62305-0.6833 0.40998-1.2136 0.99914-1.5879 1.7656-0.37433 0.76054-0.56055 1.6252-0.56055 2.5938v0.25c0 1.4438 0.4428 2.5993 1.3281 3.4668 0.89126 0.8675 2.0429 1.3008 3.457 1.3008 0.80214 0 1.5338-0.15205 2.1934-0.45508 0.65954-0.30897 1.1821-0.73656 1.5684-1.2832l-1.2656-1.416c-0.55852 0.71895-1.3339 1.0781-2.3262 1.0781-0.64171 0-1.1738-0.19004-1.5957-0.57031-0.41592-0.38027-0.52424-0.72369-0.60742-1.3535h6v-1.2148c0-1.527-0.38008-2.7053-1.1406-3.5371-0.7546-0.83185-1.7923-1.248-3.1113-1.248zm-0.0078 2.0859c0.54664 0 0.96854 0.15774 1.2656 0.47266 0.29709 0.30897 0.45101 0.74795 0.46289 1.3184l0.011719 0.12305h-3.4805c0.089126-0.64171 0.17727-1.0538 0.49219-1.3984 0.32085-0.34462 0.73706-0.51562 1.248-0.51562z" fill="#ef5350"/>
</svg>

<svg xmlns="http://www.w3.org/2000/svg" viewBox="0 0 16 16"><path fill="#ef5350" d="M5.445 2.975C3.724 2.989 3.04 3.93 3 4V3H1v10h2V7c.647-.844 1.609-1.724 3-1V3a5.33 5.33 0 0 0-.555-.025zM10.748 3c-.88 0-1.662.207-2.352.623-.683.41-1.213 1-1.588 1.766-.374.76-.56 1.625-.56 2.593v.25c0 1.444.443 2.6 1.328 3.467C8.467 12.567 9.62 13 11.033 13c.802 0 1.534-.152 2.193-.455.66-.309 1.183-.737 1.569-1.283l-1.266-1.416c-.558.719-1.334 1.078-2.326 1.078-.642 0-1.174-.19-1.596-.57C9.191 9.974 9.083 9.63 9 9h6V7.785c0-1.527-.38-2.705-1.14-3.537C13.104 3.416 12.066 3 10.747 3zm-.008 2.086c.547 0 .969.158 1.266.473.297.309.45.748.463 1.318L12.48 7H9c.089-.642.177-1.054.492-1.398.32-.345.737-.516 1.248-.516z"/></svg>
